public/avatar/hat/56.svg

<svg xmlns:xlink="http://www.w3.org/1999/xlink" height="92.9" width="100.7" xmlns="http://www.w3.org/2000/svg"><use height="32.55" transform="translate(21.6 40.3)" width="34.75" xlink:href="#a"/><defs><g id="a"><path d="m11.9 6.6-.6-1.65-.65-1-1.3-1.15H9.3V-.35q1.2.8 2.25 1.95 1.55 1.7 2.7 3.6l.05.1-.6.55q-.65.55-1.5.7l-.3.05m4.3 2.9.1.35.45 1.8.4 2.7q.2 3.6-.9 7.1l-.4.55q-.2-.2-.8-6.35-1.2 2.75-3.85 3.5l-.7.2q1.25-2.35 1.6-5l.15-1.85.55-1.7q.2-.85 1-1.3.9-.5 1.8-.25l.6.25M2.2-2.8V.25l-.6-.2-3.55.2v-2.6L1.1-2.8h1.1M-9.55 1.25V2.7q-1.45 1.7-2 3.35l-.2.7q-.3-.15-.55-.35-.8-.55-.8-1.45 1.4-2.05 3.55-3.7m-1.05 6 .6-.55-.45.6-.15-.05m26.1 5.85-.45 2.55.45-2.55m-31.65 1.5.05-.25.5-2.9.4-1.7q.55-.55 1.35-.35.9.25 1.2 1.2l.15.65q-.55 1.55-.6 3.1-.1 2.55 1.05 5.1-1.9-.85-2.9-2.45l-.45 1.55-.65 4.05q-.6-1.55-.5-3.75l.4-4.25.5.95.7 1.45-.7-1.45-.5-.95" fill="#fc0" fill-rule="evenodd" transform="translate(17.05 9.45)"/><path d="m11.75 8.45.35.35-.2-2.2.3-.05q.85-.15 1.5-.7l.6-.55q1.15 1.95 1.9 4.2l-.6-.25q-.9-.25-1.8.25-.8.45-1 1.3l-.55 1.7-.05-1.4-.45-2.65m-23.5-1.7-.3 2.2 1.45-1.7.15.05-1.6 2.8-.45 1.15-.15-.65q-.3-.95-1.2-1.2-.8-.2-1.35.35.6-2.6 2.1-4.8 0 .9.8 1.45.25.2.55.35" fill="#ff0" fill-rule="evenodd" transform="translate(17.05 9.45)"/><path d="m4.95-8.85.65-.1h.1q1.65.1 2.5.9.8.8 1.1 2.7V2.8h.05l1.3 1.15.65 1 .6 1.65.2 2.2-.35-.35-1.45-1.6Q8.9 5.3 5.05 3.5l1-1.55.1-.25.4-3.05V-5q.05-2.1-1.6-3.85M2.2.25l.1.2.5 1-4.75.3-.6.65q-1.6 1.25-3.75 1.25.65-.55 1-1.25l.3-.95.35-2.1.05-.9v-.4l.05-.9v-1.3L-4.8-6q-.45-2-2.4-2.65l1.45-.3q1.6 0 2.7 1.1.8.8 1.05 2.5l.05 2.9v2.7L1.6.05l.6.2" fill="#f39" fill-rule="evenodd" transform="translate(17.05 9.45)"/><path d="M4.95-8.85Q6.6-7.1 6.55-5v3.65l-.4 3.05-.1.25-1 1.55q-2.8-1-7-.5-4.65.5-8.05 3.7l-.6.55-1.45 1.7.3-2.2.2-.7q.55-1.65 2-3.35V.85l.15-5.15q.1-2.4.5-2.9l.65-.85 1.05-.6Q-5.25-8-4.8-6l.25 1.85v1.3l-.05.9v.4l-.05.9-.35 2.1-.3.95q-.35.7-1 1.25 2.15 0 3.75-1.25l.6-.65 4.75-.3-.5-1-.1-.2v-6q.2-1.2 1.1-2.1l.4-.3 1.25-.7" fill="#fe7abc" fill-rule="evenodd" transform="translate(17.05 9.45)"/><path d="m14.25 5.2.05.1" fill="none" stroke="#333" stroke-linecap="round" stroke-linejoin="round" transform="translate(17.05 9.45)"/><path d="M9.3-.35q1.2.8 2.25 1.95 1.55 1.7 2.7 3.6m.05.1q1.15 1.95 1.9 4.2l.1.35.45 1.8.4 2.7q.2 3.6-.9 7.1l-.4 1.15M2.2-2.8H1.1l-3.05.45m14.2 14.85-.15 1.85q-.35 2.65-1.6 5l.7-.2q2.65-.75 3.85-3.5l.45-2.55m-3.25-.6-.05-1.4-.45-2.65m4.5 13-.4.55q-.2-.2-.8-6.35m-30.25-5.9-.4 1.7-.5 2.9-.05.25.5.95.7 1.45q1 1.6 2.9 2.45-1.15-2.55-1.05-5.1.05-1.55.6-3.1l.45-1.15 1.6-2.8.45-.6m-5.2 3.05q.6-2.6 2.1-4.8 1.4-2.05 3.55-3.7m-6.6 13.35-.4 4.25q-.1 2.2.5 3.75l.65-4.05.45-1.55" fill="none" stroke="#705427" stroke-linecap="round" stroke-linejoin="round" transform="translate(17.05 9.45)"/><path d="M9.3-.35v-5q-.3-1.9-1.1-2.7-.85-.8-2.5-.9h-.1l-.65.1-1.25.7-.4.3q-.9.9-1.1 2.1v6l-.6-.2-3.55.2v-2.7L-2-5.35q-.25-1.7-1.05-2.5-1.1-1.1-2.7-1.1l-1.45.3-1.05.6-.65.85q-.4.5-.5 2.9L-9.55.85v.45m14.6 2.2Q8.9 5.3 10.3 6.85l1.45 1.6.35.35-.2-2.2-.6-1.65-.65-1-1.3-1.15H9.3V-.35m-18.85 3v.05q-1.45 1.7-2 3.35l-.2.7-.3 2.2 1.45-1.7.6-.55Q-6.6 3.5-1.95 3q4.2-.5 7 .5" fill="none" stroke="#c00161" stroke-linecap="round" stroke-linejoin="round" transform="translate(17.05 9.45)"/><path d="M-8 2.9q2.3-2.65 6.3-.55l.4.2-2.55 2.25-.7-1.3q-.6-.75-1.5-.75L-8 2.9m1.8 4.95q-1.1 1.75-1.45 3.8-.45 2.7-.2 5.4l.2 2.7-.95-1.65q-2.2-4.6-1.55-9.7l.2-1.2q.95-.6 1.85-.6 1-.05 1.55.7l.35.55" fill="#fc0" fill-rule="evenodd" transform="translate(17.05 9.45)"/><path d="m-8 2.9 1.95-.15q.9 0 1.5.75l.7 1.3-1.55 1.8-.8 1.25-.35-.55q-.55-.75-1.55-.7-.9 0-1.85.6l.9-2.7L-8 2.9m2.2 1.6q-.5-.8-1.65-.75-.7-.05-.8.6-.15.6.45.7l.7.2q.9.25 1.3-.4.15-.2 0-.35" fill="#ff0" fill-rule="evenodd" transform="translate(17.05 9.45)"/><path d="M-5.8 4.5q.15.15 0 .35-.4.65-1.3.4l-.7-.2q-.6-.1-.45-.7.1-.65.8-.6 1.15-.05 1.65.75" fill="#fff" fill-rule="evenodd" transform="translate(17.05 9.45)"/><path d="m-3.85 4.8 2.55-2.25-.4-.2q-4-2.1-6.3.55l-1.05 1.6-.9 2.7-.2 1.2q-.65 5.1 1.55 9.7l.95 1.65-.2-2.7q-.25-2.7.2-5.4.35-2.05 1.45-3.8l.8-1.25 1.55-1.8Z" fill="none" stroke="#705427" stroke-linecap="round" stroke-linejoin="round" transform="translate(17.05 9.45)"/></g></defs></svg>

<?xml version="1.0" encoding="UTF-8" standalone="no"?>
<svg xmlns:xlink="http://www.w3.org/1999/xlink" height="92.9px" width="100.7px" xmlns="http://www.w3.org/2000/svg">
  <g transform="matrix(1.0, 0.0, 0.0, 1.0, 38.65, 49.75)">
    <use height="32.55" transform="matrix(1.0, 0.0, 0.0, 1.0, -17.05, -9.45)" width="34.75" xlink:href="#shape0"/>
  </g>
  <defs>
    <g id="shape0" transform="matrix(1.0, 0.0, 0.0, 1.0, 17.05, 9.45)">
      <path d="M11.9 6.6 L11.3 4.95 10.65 3.95 9.35 2.8 9.3 2.8 9.3 -0.35 Q10.5 0.45 11.55 1.6 13.1 3.3 14.25 5.2 L14.3 5.3 13.7 5.85 Q13.05 6.4 12.2 6.55 L11.9 6.6 M16.2 9.5 L16.3 9.85 16.75 11.65 17.15 14.35 Q17.35 17.95 16.25 21.45 L15.85 22.0 Q15.65 21.8 15.05 15.65 13.85 18.4 11.2 19.15 L10.5 19.35 Q11.75 17.0 12.1 14.35 L12.25 12.5 12.8 10.8 Q13.0 9.95 13.8 9.5 14.7 9.0 15.6 9.25 L16.2 9.5 M2.2 -2.8 L2.2 0.25 1.6 0.05 -1.95 0.25 -1.95 -1.35 -1.95 -2.35 1.1 -2.8 2.2 -2.8 M-9.55 1.25 L-9.55 1.3 -9.55 2.65 -9.55 2.7 Q-11.0 4.4 -11.55 6.05 L-11.75 6.75 Q-12.05 6.6 -12.3 6.4 -13.1 5.85 -13.1 4.95 -11.7 2.9 -9.55 1.25 M-10.6 7.25 L-10.0 6.7 -10.45 7.3 -10.6 7.25 M15.5 13.1 L15.05 15.65 15.5 13.1 M-16.15 14.6 L-16.1 14.35 -15.6 11.45 -15.2 9.75 Q-14.65 9.2 -13.85 9.4 -12.95 9.65 -12.65 10.6 L-12.5 11.25 Q-13.05 12.8 -13.1 14.35 -13.2 16.9 -12.05 19.45 -13.95 18.6 -14.95 17.0 L-15.4 18.55 -16.05 22.6 Q-16.65 21.05 -16.55 18.85 L-16.15 14.6 -15.65 15.55 -14.95 17.0 -15.65 15.55 -16.15 14.6" fill="#ffcc00" fill-rule="evenodd" stroke="none"/>
      <path d="M11.75 8.45 L12.1 8.8 11.9 6.6 12.2 6.55 Q13.05 6.4 13.7 5.85 L14.3 5.3 Q15.45 7.25 16.2 9.5 L15.6 9.25 Q14.7 9.0 13.8 9.5 13.0 9.95 12.8 10.8 L12.25 12.5 12.2 11.1 11.75 8.45 M-11.75 6.75 L-12.05 8.95 -10.6 7.25 -10.45 7.3 -12.05 10.1 -12.5 11.25 -12.65 10.6 Q-12.95 9.65 -13.85 9.4 -14.65 9.2 -15.2 9.75 -14.6 7.15 -13.1 4.95 -13.1 5.85 -12.3 6.4 -12.05 6.6 -11.75 6.75" fill="#ffff00" fill-rule="evenodd" stroke="none"/>
      <path d="M4.95 -8.85 L5.6 -8.95 5.7 -8.95 Q7.35 -8.85 8.2 -8.05 9.0 -7.25 9.3 -5.35 L9.3 -0.35 9.3 2.8 9.35 2.8 10.65 3.95 11.3 4.95 11.9 6.6 12.1 8.8 11.75 8.45 10.3 6.85 Q8.9 5.3 5.05 3.5 L6.05 1.95 6.15 1.7 6.55 -1.35 6.55 -1.45 6.55 -1.6 6.55 -1.9 6.55 -2.45 6.55 -4.0 6.55 -5.0 Q6.6 -7.1 4.95 -8.85 M2.2 0.25 L2.3 0.45 2.8 1.45 -1.95 1.75 -2.55 2.4 Q-4.15 3.65 -6.3 3.65 -5.65 3.1 -5.3 2.4 L-5.0 1.45 -4.65 -0.65 -4.6 -1.55 -4.6 -1.95 -4.55 -2.85 -4.55 -4.15 -4.8 -6.0 Q-5.25 -8.0 -7.2 -8.65 L-5.75 -8.95 Q-4.15 -8.95 -3.05 -7.85 -2.25 -7.05 -2.0 -5.35 L-1.95 -2.45 -1.95 -2.35 -1.95 -1.35 -1.95 0.25 1.6 0.05 2.2 0.25" fill="#ff3399" fill-rule="evenodd" stroke="none"/>
      <path d="M4.95 -8.85 Q6.6 -7.1 6.55 -5.0 L6.55 -4.0 6.55 -2.45 6.55 -1.9 6.55 -1.6 6.55 -1.45 6.55 -1.35 6.15 1.7 6.05 1.95 5.05 3.5 Q2.25 2.5 -1.95 3.0 -6.6 3.5 -10.0 6.7 L-10.6 7.25 -12.05 8.95 -11.75 6.75 -11.55 6.05 Q-11.0 4.4 -9.55 2.7 L-9.55 2.65 -9.55 1.3 -9.55 1.25 -9.55 0.85 -9.4 -4.3 Q-9.3 -6.7 -8.9 -7.2 L-8.25 -8.05 -7.2 -8.65 Q-5.25 -8.0 -4.8 -6.0 L-4.55 -4.15 -4.55 -2.85 -4.6 -1.95 -4.6 -1.55 -4.65 -0.65 -5.0 1.45 -5.3 2.4 Q-5.65 3.1 -6.3 3.65 -4.15 3.65 -2.55 2.4 L-1.95 1.75 2.8 1.45 2.3 0.45 2.2 0.25 2.2 -2.8 2.2 -5.75 Q2.4 -6.95 3.3 -7.85 L3.7 -8.15 4.95 -8.85" fill="#fe7abc" fill-rule="evenodd" stroke="none"/>
      <path d="M14.25 5.2 L14.3 5.3" fill="none" stroke="#333333" stroke-linecap="round" stroke-linejoin="round" stroke-width="1.0"/>
      <path d="M9.3 -0.35 Q10.5 0.45 11.55 1.6 13.1 3.3 14.25 5.2 M14.3 5.3 Q15.45 7.25 16.2 9.5 L16.3 9.85 16.75 11.65 17.15 14.35 Q17.35 17.95 16.25 21.45 L15.85 22.6 M2.2 -2.8 L1.1 -2.8 -1.95 -2.35 M12.25 12.5 L12.1 14.35 Q11.75 17.0 10.5 19.35 L11.2 19.15 Q13.85 18.4 15.05 15.65 L15.5 13.1 M12.25 12.5 L12.2 11.1 11.75 8.45 M16.25 21.45 L15.85 22.0 Q15.65 21.8 15.05 15.65 M-15.2 9.75 L-15.6 11.45 -16.1 14.35 -16.15 14.6 -15.65 15.55 -14.95 17.0 Q-13.95 18.6 -12.05 19.45 -13.2 16.9 -13.1 14.35 -13.05 12.8 -12.5 11.25 L-12.05 10.1 -10.45 7.3 -10.0 6.7 M-15.2 9.75 Q-14.6 7.15 -13.1 4.95 -11.7 2.9 -9.55 1.25 M-16.15 14.6 L-16.55 18.85 Q-16.65 21.05 -16.05 22.6 L-15.4 18.55 -14.95 17.0" fill="none" stroke="#705427" stroke-linecap="round" stroke-linejoin="round" stroke-width="1.0"/>
      <path d="M9.3 -0.35 L9.3 -5.35 Q9.0 -7.25 8.2 -8.05 7.35 -8.85 5.7 -8.95 L5.6 -8.95 4.95 -8.85 3.7 -8.15 3.3 -7.85 Q2.4 -6.95 2.2 -5.75 L2.2 -2.8 2.2 0.25 1.6 0.05 -1.95 0.25 -1.95 -1.35 -1.95 -2.35 -1.95 -2.45 -2.0 -5.35 Q-2.25 -7.05 -3.05 -7.85 -4.15 -8.95 -5.75 -8.95 L-7.2 -8.65 -8.25 -8.05 -8.9 -7.2 Q-9.3 -6.7 -9.4 -4.3 L-9.55 0.85 -9.55 1.25 -9.55 1.3 M5.05 3.5 Q8.9 5.3 10.3 6.85 L11.75 8.45 12.1 8.8 11.9 6.6 11.3 4.95 10.65 3.95 9.35 2.8 9.3 2.8 9.3 -0.35 M-9.55 2.65 L-9.55 2.7 Q-11.0 4.4 -11.55 6.05 L-11.75 6.75 -12.05 8.95 -10.6 7.25 -10.0 6.7 Q-6.6 3.5 -1.95 3.0 2.25 2.5 5.05 3.5" fill="none" stroke="#c00161" stroke-linecap="round" stroke-linejoin="round" stroke-width="1.0"/>
      <path d="M-8.0 2.9 Q-5.7 0.25 -1.7 2.35 L-1.3 2.55 -3.85 4.8 -4.55 3.5 Q-5.15 2.75 -6.05 2.75 L-8.0 2.9 M-6.2 7.85 Q-7.3 9.6 -7.65 11.65 -8.1 14.35 -7.85 17.05 L-7.65 19.75 -8.6 18.1 Q-10.8 13.5 -10.15 8.4 L-9.95 7.2 Q-9.0 6.6 -8.1 6.6 -7.1 6.55 -6.55 7.3 L-6.2 7.85" fill="#ffcc00" fill-rule="evenodd" stroke="none"/>
      <path d="M-8.0 2.9 L-6.05 2.75 Q-5.15 2.75 -4.55 3.5 L-3.85 4.8 -5.4 6.6 -6.2 7.85 -6.55 7.3 Q-7.1 6.55 -8.1 6.6 -9.0 6.6 -9.95 7.2 L-9.05 4.5 -8.0 2.9 M-5.8 4.5 Q-6.3 3.7 -7.45 3.75 -8.15 3.7 -8.25 4.35 -8.4 4.95 -7.8 5.05 L-7.1 5.25 Q-6.2 5.5 -5.8 4.85 -5.65 4.65 -5.8 4.5" fill="#ffff00" fill-rule="evenodd" stroke="none"/>
      <path d="M-5.8 4.5 Q-5.65 4.65 -5.8 4.85 -6.2 5.5 -7.1 5.25 L-7.8 5.05 Q-8.4 4.95 -8.25 4.35 -8.15 3.7 -7.45 3.75 -6.3 3.7 -5.8 4.5" fill="#ffffff" fill-rule="evenodd" stroke="none"/>
      <path d="M-3.85 4.8 L-1.3 2.55 -1.7 2.35 Q-5.7 0.25 -8.0 2.9 L-9.05 4.5 -9.95 7.2 -10.15 8.4 Q-10.8 13.5 -8.6 18.1 L-7.65 19.75 -7.85 17.05 Q-8.1 14.35 -7.65 11.65 -7.3 9.6 -6.2 7.85 L-5.4 6.6 -3.85 4.8 Z" fill="none" stroke="#705427" stroke-linecap="round" stroke-linejoin="round" stroke-width="1.0"/>
    </g>
  </defs>
</svg>
